X:1
T:Title
%%score { 1 | ( 2 3 ) }
L:1/8
Q:1/4=76
M:4/4
K:G
V:1 treble nm="Grand Piano"
V:2 bass 
V:3 bass 
V:1
 [B,D]2 [DB]2 [DB]2 [Ec][DB] | [^CB]2 [CE]2 A4 | D2 A2 A2 BA | [B,G]2 [CE]2 [B,D]4 | %4
w: E.~S.~Black * * * *||||
 [B,D]2 [DB]2 [DB]2 [Ec]B | B2 A2 E4 | D2 B2 A2 D2 | [B,G]6 z2 | [CE]2 [EG]2 [DF]2 [CE]2 | %9
w: |||||
 [CE]3 [B,D] [B,D]4 | [^CB]2 [CE]2 [CA]3 [CB] | [CA]6 z2 | [B,D]2 [DB]2 [DB]2 [Ec]B | B2 A2 E4 | %14
w: |||||
 D2 B2 A2 D2 | [B,G]6 z2 |] %16
w: ||
V:2
 [G,,G,]2 [G,,G,]2 [G,,G,]2 [G,,G,]2 | [A,,E,]2 [A,,G,]2 [D,F,C]4 | %2
 [D,F,C]2 [D,F,C]2 [D,F,C]2 [D,C]-[D,F,C] | [G,,G,]2 [G,,G,]2 [G,,G,]4 | %4
 [G,,G,]2 [G,,G,]2 [G,,G,]2 z D | [C,E,C]2 [C,E,C]2 [C,G,C]4 | C2- [D,G,CD]2 [D,F,C]2 [D,F,C]2 | %7
 [G,,G,]6 z2 | [C,G,]2 [C,G,]2 [C,G,]2 [C,G,]2 | [G,,G,]3 [G,,G,] [G,,G,]4 | %10
 [A,,E,]2 [A,,E,]2 [A,,G,]3 [A,,G,] | [D,F,]6 z2 | [G,,G,]2 [G,,G,]2 [G,,G,]2 z D | %13
 [C,E,C]2 [C,E,C]2 [C,G,C]4 | [D,F,C]2 [D,G,D]2 [D,F,C]2 [D,F,C]2 | [G,,G,]6 z2 |] %16
V:3
 x8 | x8 | z4 z2 .G,2 | x8 | z4 z2 [G,,G,]2 | x8 | [D,F,]2 z2 z4 | x8 | x8 | x8 | x8 | x8 | %12
 z4 z2 [G,,G,]2 | x8 | x8 | x8 |] %16

